!!!COM: Martin, Frank
!!!OTL: Trio sur des mélodies populaires irlandaises (Trio on Popular Irish Melodies) for Violin, Violincello and Piano
!!!OMV: III: Gigue
!!!example: 543
!!!work: Mai-11
**kern	**kern	**dynam	**kern	**dynam	**kern	**dynam
*part3	*part3	*part3	*part2	*part2	*part1	*part1
*staff4	*staff3	*	*staff2	*	*staff1	*
*I"Piano	*	*	*I"Violoncello	*	*I"Violin	*
*I'Pno.	*	*	*I'Vc.	*	*I'Vln.	*
*clefF4	*clefG2	*	*clefF4	*	*clefG2	*
*k[f#c#]	*k[f#c#]	*	*k[f#c#]	*	*k[f#c#]	*
*D:	*D:	*	*D:	*	*D:	*
*M3/4	*M3/4	*	*M3/4	*	*M3/4	*
=162	=	=	=	=	=	=
8BB'L 8F#	8B'L 8d 8f#	.	(8F##X'L	.	12eeL	.
.	.	.	.	.	12ff#	.
8BB'J 8F#	8B'J 8d 8f#	.	8F##'J)	.	.	.
.	.	.	.	.	12eeJ	.
8BB' 8F#	8B' 8d 8f#	.	8G#X'	.	12eeL	.
.	.	.	.	.	12cc#	.
8r	8r	.	8r	.	.	.
.	.	.	.	.	12aJ	.
8BB' 8F#	8c#' 8d 8f#	.	8A#X'	.	12cc#L	.
.	.	.	.	.	12dd	.
8r	8r	.	8r	.	.	.
.	.	.	.	.	12eeJ	.
=163	=163	=163	=163	=163	=163	=163
8EEEn	8d' 8f#	.	8B'	.	12ff#L	.
.	.	.	.	.	12gg	.
8r	8r	.	8r	.	.	.
.	.	.	.	.	12ff#J	.
8D'L 8G	8c#'L 8d 8f#	.	(8A#X'L	.	12eeL	.
.	.	.	.	.	12ff#	.
8D'J 8G	8c#'J 8d 8f#	.	8A#'J)	.	.	.
.	.	.	.	.	12eeJ	.
8D' 8G	8B' 8d 8f#	.	8B'	.	4dd'	.
8r	8r	.	8r	.	.	.
=164	=164	=164	=164	=164	=164	=164
8D'L 8G	8c#'L 8d 8f#	.	(8A#X'L	.	12ff#L	.
.	.	.	.	.	12gg	.
8D'J 8G	8c#'J 8d 8f#	.	8A#'J)	.	.	.
.	.	.	.	.	12ff#J	.
8D' 8G	8B' 8d 8f#	.	8B'	.	12ff#L	.
.	.	.	.	.	12dd	.
8r	8r	.	8r	.	.	.
.	.	.	.	.	12bJ	.
8D' 8G	8c#' 8d 8f#	.	8A#'	.	12cc#L	.
.	.	.	.	.	12dd	.
8r	8r	.	8r	.	.	.
.	.	.	.	.	12eeJ	.
=165	=165	=165	=165	=165	=165	=165
8D' 8G	8B' 8d 8f#	.	8B'	.	12ff#L	.
.	.	.	.	.	12gg	.
8r	8r	.	8r	.	.	.
.	.	.	.	.	12ff#J	.
8DDD'	4r	.	(16GLL	>	12eeL	.
.	.	.	16G#X	.	.	.
.	.	.	.	.	12ff#	.
8r	.	.	16A	.	.	.
.	.	.	.	.	12eeJ	.
.	.	.	16A#XJJ	.	.	.
8GGG'	8B' 8d 8f#	.	8B')	.	6dd	.
8r	8r	.	8r	]	.	.
.	.	.	.	.	12ff#	.
=166	=166	=166	=166	=166	=166	=166
8D'L 8G	8c#'L 8d 8f#	.	(8A#X'L	.	12eeL	.
.	.	.	.	.	12ff#	.
8D'J 8G	8c#'J 8d 8f#	.	8A#'J)	.	.	.
.	.	.	.	.	12eeJ	.
8D' 8G	8B' 8d 8f#	.	8B'	.	12eeL	.
.	.	.	.	.	12cc#	.
8r	8r	.	8r	.	.	.
.	.	.	.	.	12aJ	.
8D' 8G	8c#' 8d 8f#	.	8c#'	.	12cc#L	.
.	.	.	.	.	12dd	.
8r	8r	.	8r	.	.	.
.	.	.	.	.	12eeJ	.
=167	=167	=167	=167	=167	=167	=167
!!linebreak:original
(4EE'^^	2B^^ 2d 2f#	.	8d'	.	12ff#L	.
.	.	.	.	.	12gg	.
.	.	.	8r	.	.	.
.	.	.	.	.	12ff#J	.
4BB'	.	.	(8c#'L	.	12bbL	.
.	.	.	.	.	12ff#	.
.	.	.	8c#'J)	.	.	.
.	.	.	.	.	12eeJ	.
4G'	4B^^ 4d 4g	.	8d'	.	6dd	.
.	.	.	8r	.	.	.
.	.	.	.	.	12ff#	.
=168	=168	=168	=168	=168	=168	=168
4BB')	4d^^ 4g 4b	.	(8c#'L	.	12ff#L	.
.	.	.	.	.	12gg	.
.	.	.	8c#'J)	.	.	.
.	.	.	.	.	12ff#J	.
(4EE'^^	4d^^ 4f# 4a	.	8d'	.	12ff#L	.
.	.	.	.	.	12dd	.
.	.	.	8r	.	.	.
.	.	.	.	.	12bJ	.
4BB'	[4c#^^ [4d [4f#	.	8c#'	.	12cc#L	.
.	.	.	.	.	12dd	.
.	.	.	8r	.	.	.
.	.	.	.	.	12eeJ	.
=169	=169	=169	=169	=169	=169	=169
4G#X'	4c#] 4d] 4f#]	.	8d'	.	12ff#L	.
.	.	.	.	.	12gg	.
.	.	.	8r	.	.	.
.	.	.	.	.	12ff#J	.
4BB')	2B^^ 2d 2g#X	.	(16A#XLL	>	12bbL	.
.	.	.	16B	.	.	.
.	.	.	.	.	12ff#	.
.	.	.	16B#X	.	.	.
.	.	.	.	.	12eeJ	.
.	.	.	16c#JJ	.	.	.
(4EE'^^	.	.	8d')	.	6dd	.
.	.	.	8r	]	.	.
.	.	.	.	.	12ff#	.
=170	=170	=170	=170	=170	=170	=170
!!linebreak:original
4BB'	4d^^ 4gn 4b	.	(8B'L	.	12eeL	.
.	.	.	.	.	12ff#	.
.	.	.	8B'J)	.	.	.
.	.	.	.	.	12eeJ	.
4F#'	4d^^ 4f# 4a	.	8c#'	.	12eeL	.
.	.	.	.	.	12cc#	.
.	.	.	8r	.	.	.
.	.	.	.	.	12aJ	.
4BB')	4B^^ 4d 4f#	.	8d'	.	12cc#L	.
.	.	.	.	.	12dd	.
.	.	.	8r	.	.	.
.	.	.	.	.	12eeJ	.
*	*	*	*clefC4	*	*	*
=171	=171	=171	=171	=171	=171	=171
4CC#'^^	4B' 4g#X	p	(4.e	p	12bbL	p
.	.	.	.	.	12bb	.
.	.	.	.	.	12bbJ	.
4GGG#X'	8A'L 8f#	.	.	.	6bb	.
.	8A'J 8f#	.	8d)	.	.	.
.	.	.	.	.	12ccc#	.
4CC#'^^	4B' 4g#	.	([4e	.	6ddd	.
.	.	.	.	.	12eee	.
=172	=172	=172	=172	=172	=172	=172
4GGG#X'	8c#'L 8a	.	8eL]	.	12bbL	.
.	.	.	.	.	12bb	.
.	8c#'J 8a	.	8f#J)	.	.	.
.	.	.	.	.	12bbJ	.
4CC#'^^	4d' 4b	.	(4.gn	.	6ddd	.
.	.	.	.	.	12fff#	.
4GGG#'	4c#' 4a	.	.	.	12eeeL	.
.	.	.	.	.	12ccc#	.
.	.	.	8f#)	.	.	.
.	.	.	.	.	12aaJ	.
==	==	==	==	==	==	==
*-	*-	*-	*-	*-	*-	*-
!!!CDT: 1890/09/15-1974/11/21
!!!CBL: Geneva, Switzerland
!!!CDL: Naarden, Netherlands
!!!CNT: Swiss
!!!AGN: Instrumental; Chamber
!!!MCN:
!!!MDT: 1926/04/01
!!!MGN:
!!!MLC: Paris, France
!!!MPD: 1926
!!!MPN: Martin, Frank
!!!ODT: 1925
!!!PDT: 1955
!!!excerpt-start-measure: 162
!!!excerpt-end-measure: 172
!!!excerpt-start-time: 3:02
!!!excerpt-end-time: 3:12
!!!EEV: 2020/01/17
!!!system-decoration: [(s1,s2)]{(s3,s4)}
!!!ONB: Converted from MusicXML on 2020/01/17
